; generated by PrusaSlicer 2.3.1+win64 on 2022-01-16 at 04:27:34 UTC

; 

; external perimeters extrusion width = 0.60mm
; perimeters extrusion width = 0.50mm
; infill extrusion width = 0.50mm
; solid infill extrusion width = 0.50mm
; top infill extrusion width = 0.45mm
; first layer extrusion width = 0.42mm

M73 P0 R114
M73 Q0 S115
M201 X1000 Y1000 Z200 E5000 ; sets maximum accelerations, mm/sec^2
M203 X200 Y200 Z12 E120 ; sets maximum feedrates, mm/sec
M204 P1250 R1250 T1250 ; sets acceleration (P, T) and retract acceleration (R), mm/sec^2
M205 X8.00 Y8.00 Z0.40 E4.50 ; sets the jerk limits, mm/sec
M205 S0 T0 ; sets the minimum extruding and travel feed rate, mm/sec
M107
;TYPE:Custom
M862.3 P "MK3SMMU2S" ; printer model check
M862.1 P0.4 ; nozzle diameter check
M115 U3.9.3 ; tell printer latest fw version
G90 ; use absolute coordinates
M83 ; extruder relative mode
M104 S215 ; set extruder temp
M140 S60 ; set bed temp
Tx
M190 S60 ; wait for bed temp
M109 S215 ; wait for extruder temp
G28 W ; home all without mesh bed level
G80 ; mesh bed leveling

;go outside print area
G1 Y-3.0 F1000.0
G1 Z0.4 F1000.0
; select extruder
Tc
; purge line
G1 X55.0 F2000.0
G1 Z0.3 F1000.0
G92 E0.0
G1 X240.0 E25.0 F2200.0
G1 Y-2.0 F1000.0
G1 X55.0 E25 F1400.0
G1 Z0.20 F1000.0
G1 X5.0 E4.0 F1000.0

M221 S95
G92 E0.0

; Don't change E values below. Excessive value can damage the printer.

M907 E538 ; set extruder motor current
G21 ; set units to millimeters
G90 ; use absolute coordinates
M83 ; use relative distances for extrusion
M900 K0.05 ; Filament gcode LA 1.5
M900 K30 ; Filament gcode LA 1.0
;LAYER_CHANGE
;Z:0.2
;HEIGHT:0.2
;BEFORE_LAYER_CHANGE
G92 E0.0
;0.2


M73 Q0 S114
G1 E-0.80000 F2100.000
G1 Z0.400 F10800.000
;AFTER_LAYER_CHANGE
;0.2
G1 X94.004 Y69.096
G1 Z0.200
G1 E0.80000 F2100.000
M204 S1000
;TYPE:Skirt
;WIDTH:0.42
G1 F1200.000
G1 X94.850 Y68.032 E0.04261
G1 X95.781 Y67.026 E0.04300
G1 X96.830 Y66.053 E0.04486
G1 X98.862 Y64.540 E0.07946
G1 X100.029 Y63.849 E0.04252
G1 X101.317 Y63.212 E0.04502
G1 X102.579 Y62.705 E0.04265
G1 X103.866 Y62.295 E0.04236
G1 X105.269 Y61.964 E0.04519
G1 X107.784 Y61.650 E0.07947
G1 X109.170 Y61.625 E0.04347
G1 X110.631 Y61.714 E0.04587
G1 X157.541 Y67.646 E1.48254
G1 X158.080 Y67.791 E0.01752
G1 X158.574 Y68.060 E0.01763
G1 X158.991 Y68.438 E0.01763
G1 X159.307 Y68.903 E0.01763
G1 X159.505 Y69.429 E0.01763
G1 X159.574 Y69.991 E0.01775
G1 X159.524 Y138.051 E2.13399
G1 X159.355 Y139.216 E0.03690
G1 X159.051 Y140.402 E0.03838
G1 X158.282 Y142.259 E0.06302
G1 X157.664 Y143.308 E0.03817
G1 X156.924 Y144.293 E0.03863
G1 X155.502 Y145.716 E0.06307
G1 X154.527 Y146.452 E0.03831
G1 X153.536 Y147.044 E0.03618
G1 X152.537 Y147.515 E0.03465
G1 X151.395 Y147.914 E0.03794
G1 X149.432 Y148.305 E0.06274
G1 X148.295 Y148.373 E0.03572
G1 X127.774 Y148.375 E0.64342
G1 X126.679 Y148.319 E0.03439
G1 X125.556 Y148.151 E0.03559
G1 X123.535 Y147.545 E0.06616
G1 X97.981 Y137.939 E0.85596
G1 X96.946 Y137.380 E0.03689
G1 X95.554 Y136.277 E0.05569
G1 X94.792 Y135.423 E0.03588
G1 X94.158 Y134.470 E0.03588
G1 X93.757 Y133.682 E0.02772
G1 X93.402 Y132.725 E0.03200
G1 X93.173 Y131.768 E0.03086
G1 X93.056 Y130.762 E0.03175
G1 X90.428 Y80.531 E1.57711
G1 X90.446 Y79.060 E0.04614
G1 X90.768 Y76.438 E0.08282
G1 X91.077 Y75.131 E0.04212
G1 X91.509 Y73.771 E0.04473
G1 X92.017 Y72.510 E0.04263
G1 X93.203 Y70.278 E0.07926
G1 X93.970 Y69.146 E0.04288
; printing object glasswireclip.stl id:0 copy 0
;WIPE_START
G1 F8640.000
G1 X94.850 Y68.032 E-0.32763
G1 X95.781 Y67.026 E-0.31665
G1 X96.148 Y66.685 E-0.11572
;WIPE_END
G1 E-0.04000 F2100.000
G1 Z0.600 F10800.000
G1 X101.715 Y125.269
G1 Z0.200
G1 E0.80000 F2100.000
;TYPE:Perimeter
G1 F1200.000
G1 X94.190 Y82.595 E1.35862
G1 X94.037 Y81.486 E0.03511
G1 X93.967 Y80.398 E0.03417
G1 X93.978 Y79.309 E0.03416
G1 X94.070 Y78.217 E0.03435
G1 X94.240 Y77.140 E0.03420
G1 X94.490 Y76.075 E0.03431
G1 X94.818 Y75.032 E0.03428
G1 X95.221 Y74.017 E0.03422
G1 X95.699 Y73.032 E0.03434
G1 X96.246 Y72.089 E0.03418
G1 X96.864 Y71.185 E0.03435
G1 X97.544 Y70.331 E0.03421
G1 X98.287 Y69.529 E0.03429
G1 X99.087 Y68.782 E0.03430
G1 X99.937 Y68.099 E0.03420
G1 X100.840 Y67.478 E0.03435
G1 X101.781 Y66.927 E0.03418
G1 X102.764 Y66.445 E0.03434
G1 X103.777 Y66.038 E0.03424
G1 X104.818 Y65.707 E0.03426
G1 X105.883 Y65.452 E0.03432
G1 X106.959 Y65.277 E0.03419
G1 X108.051 Y65.182 E0.03435
G1 X109.141 Y65.167 E0.03419
G1 X110.234 Y65.233 E0.03432
G1 X111.317 Y65.378 E0.03426
G1 X112.385 Y65.604 E0.03424
G1 X113.437 Y65.907 E0.03434
G1 X114.460 Y66.286 E0.03418
G1 X115.456 Y66.741 E0.03435
G1 X116.412 Y67.266 E0.03420
G1 X117.330 Y67.862 E0.03430
G1 X118.201 Y68.524 E0.03429
G1 X119.018 Y69.246 E0.03421
G1 X119.784 Y70.030 E0.03435
G1 X120.486 Y70.863 E0.03418
G1 X121.128 Y71.751 E0.03434
G1 X121.701 Y72.680 E0.03422
G1 X122.205 Y73.650 E0.03428
G1 X122.637 Y74.656 E0.03431
G1 X122.992 Y75.687 E0.03420
G1 X123.271 Y76.746 E0.03435
G1 X123.471 Y77.817 E0.03416
G1 X123.591 Y78.900 E0.03417
G1 X123.633 Y80.020 E0.03511
G1 X123.633 Y137.044 E1.78797
G1 X123.681 Y137.653 E0.01916
G1 X123.833 Y138.285 E0.02037
G1 X124.084 Y138.891 E0.02056
G1 X124.425 Y139.447 E0.02045
G1 X124.850 Y139.945 E0.02052
G1 X125.348 Y140.370 E0.02052
G1 X125.904 Y140.711 E0.02045
G1 X126.510 Y140.962 E0.02056
G1 X127.142 Y141.113 E0.02037
G1 X127.751 Y141.162 E0.01916
G1 X148.243 Y141.162 E0.64253
G1 X148.853 Y141.113 E0.01916
G1 X149.484 Y140.962 E0.02037
G1 X150.090 Y140.711 E0.02056
G1 X150.646 Y140.370 E0.02045
G1 X151.144 Y139.945 E0.02052
G1 X151.569 Y139.447 E0.02052
G1 X151.910 Y138.891 E0.02045
G1 X152.161 Y138.285 E0.02056
G1 X152.313 Y137.653 E0.02037
G1 X152.361 Y137.044 E0.01916
G1 X152.361 Y74.040 E1.97546
G1 X152.393 Y73.593 E0.01405
G1 X152.479 Y73.200 E0.01259
G1 X152.620 Y72.821 E0.01271
G1 X152.814 Y72.466 E0.01266
G1 X153.056 Y72.143 E0.01265
G1 X153.342 Y71.857 E0.01271
G1 X153.666 Y71.615 E0.01265
G1 X154.020 Y71.421 E0.01266
G1 X154.400 Y71.280 E0.01271
G1 X154.792 Y71.194 E0.01259
G1 X155.239 Y71.162 E0.01405
G1 X156.033 Y71.162 E0.02489
G1 X156.033 Y136.969 E2.06333
M73 P0 R113
G1 X155.993 Y137.770 E0.02514
G1 X155.881 Y138.526 E0.02398
G1 X155.694 Y139.272 E0.02411
G1 X155.435 Y139.996 E0.02411
G1 X155.106 Y140.691 E0.02411
G1 X154.711 Y141.350 E0.02411
G1 X154.253 Y141.968 E0.02411
G1 X153.737 Y142.538 E0.02411
G1 X153.167 Y143.054 E0.02411
G1 X152.550 Y143.512 E0.02411
G1 X151.890 Y143.907 E0.02411
G1 X151.195 Y144.236 E0.02411
G1 X150.471 Y144.495 E0.02411
G1 X149.725 Y144.682 E0.02411
G1 X148.969 Y144.794 E0.02398
G1 X148.168 Y144.834 E0.02514
G1 X127.826 Y144.834 E0.63781
G1 X127.025 Y144.794 E0.02514
G1 X126.269 Y144.682 E0.02398
G1 X125.523 Y144.495 E0.02411
G1 X124.799 Y144.236 E0.02411
G1 X124.104 Y143.907 E0.02411
G1 X123.444 Y143.512 E0.02411
G1 X122.827 Y143.054 E0.02411
G1 X122.257 Y142.538 E0.02411
G1 X121.741 Y141.968 E0.02411
G1 X121.283 Y141.350 E0.02411
G1 X120.888 Y140.691 E0.02411
G1 X120.559 Y139.996 E0.02411
G1 X120.300 Y139.272 E0.02411
G1 X120.113 Y138.526 E0.02411
G1 X120.001 Y137.770 E0.02398
G1 X119.961 Y136.969 E0.02514
G1 X119.961 Y79.971 E1.78714
G1 X119.914 Y78.966 E0.03154
G1 X119.773 Y77.952 E0.03211
G1 X119.539 Y76.952 E0.03219
G1 X119.213 Y75.975 E0.03228
G1 X118.799 Y75.036 E0.03218
G1 X118.299 Y74.135 E0.03230
G1 X117.721 Y73.288 E0.03217
G1 X117.065 Y72.494 E0.03230
G1 X116.341 Y71.767 E0.03216
G1 X115.550 Y71.106 E0.03230
G1 X114.706 Y70.524 E0.03217
G1 X113.807 Y70.020 E0.03230
G1 X112.870 Y69.602 E0.03218
G1 X111.895 Y69.271 E0.03229
G1 X110.896 Y69.032 E0.03219
G1 X109.878 Y68.885 E0.03227
G1 X108.852 Y68.833 E0.03222
G1 X107.824 Y68.875 E0.03224
G1 X106.805 Y69.012 E0.03225
G1 X105.803 Y69.242 E0.03222
G1 X104.825 Y69.563 E0.03227
G1 X103.884 Y69.972 E0.03219
G1 X102.981 Y70.467 E0.03229
G1 X102.130 Y71.041 E0.03218
G1 X101.333 Y71.694 E0.03230
G1 X100.603 Y72.414 E0.03217
G1 X99.938 Y73.202 E0.03230
G1 X99.352 Y74.043 E0.03216
G1 X98.844 Y74.939 E0.03230
G1 X98.421 Y75.874 E0.03217
G1 X98.085 Y76.848 E0.03229
G1 X97.841 Y77.845 E0.03218
G1 X97.690 Y78.863 E0.03228
G1 X97.632 Y79.889 E0.03220
G1 X97.670 Y80.912 E0.03210
G1 X97.798 Y81.910 E0.03154
G1 X106.176 Y129.426 E1.51283
G1 X106.247 Y130.045 E0.01954
G1 X106.243 Y130.625 E0.01816
G1 X106.168 Y131.205 E0.01835
G1 X106.025 Y131.769 E0.01825
G1 X105.814 Y132.315 E0.01836
G1 X105.540 Y132.829 E0.01824
G1 X105.204 Y133.308 E0.01836
G1 X104.815 Y133.741 E0.01824
G1 X104.375 Y134.127 E0.01836
G1 X103.893 Y134.454 E0.01825
G1 X103.374 Y134.722 E0.01834
G1 X102.827 Y134.925 E0.01827
G1 X102.259 Y135.061 E0.01831
G1 X101.679 Y135.128 E0.01831
G1 X101.096 Y135.124 E0.01827
G1 X100.516 Y135.049 E0.01834
G1 X99.952 Y134.906 E0.01825
G1 X99.406 Y134.695 E0.01836
G1 X98.893 Y134.421 E0.01824
G1 X98.413 Y134.085 E0.01836
G1 X97.980 Y133.697 E0.01824
G1 X97.595 Y133.256 E0.01836
G1 X97.267 Y132.774 E0.01825
G1 X96.999 Y132.255 E0.01834
G1 X96.796 Y131.708 E0.01827
G1 X96.660 Y131.140 E0.01831
G1 X96.594 Y130.560 E0.01831
G1 X96.597 Y129.978 E0.01827
G1 X96.672 Y129.397 E0.01834
G1 X96.815 Y128.833 E0.01825
G1 X97.026 Y128.287 E0.01836
G1 X97.300 Y127.774 E0.01824
G1 X97.636 Y127.294 E0.01836
G1 X98.025 Y126.861 E0.01824
G1 X98.465 Y126.476 E0.01836
G1 X98.947 Y126.148 E0.01825
G1 X99.467 Y125.880 E0.01835
G1 X100.010 Y125.678 E0.01816
G1 X101.656 Y125.283 E0.05311
G1 X101.282 Y124.985 F10800.000
G1 F1200.000
G1 X93.818 Y82.654 E1.34772
G1 X93.662 Y81.524 E0.03577
G1 X93.590 Y80.409 E0.03504
G1 X93.601 Y79.291 E0.03503
G1 X93.695 Y78.172 E0.03522
G1 X93.870 Y77.067 E0.03507
G1 X94.127 Y75.975 E0.03518
G1 X94.462 Y74.905 E0.03515
G1 X94.876 Y73.865 E0.03510
G1 X95.366 Y72.855 E0.03521
G1 X95.927 Y71.888 E0.03505
G1 X96.561 Y70.960 E0.03522
G1 X97.258 Y70.085 E0.03509
G1 X98.020 Y69.262 E0.03516
G1 X98.840 Y68.497 E0.03517
G1 X99.712 Y67.796 E0.03508
G1 X100.637 Y67.159 E0.03522
G1 X101.602 Y66.595 E0.03505
G1 X102.610 Y66.101 E0.03521
G1 X103.649 Y65.683 E0.03511
G1 X104.717 Y65.343 E0.03514
G1 X105.809 Y65.082 E0.03519
G1 X106.913 Y64.903 E0.03506
G1 X108.032 Y64.805 E0.03522
G1 X109.150 Y64.790 E0.03506
G1 X110.270 Y64.857 E0.03519
G1 X111.381 Y65.006 E0.03514
G1 X112.476 Y65.237 E0.03511
G1 X113.555 Y65.549 E0.03521
G1 X114.604 Y65.937 E0.03505
G1 X115.625 Y66.404 E0.03522
G1 X116.606 Y66.943 E0.03508
G1 X117.547 Y67.554 E0.03517
G1 X118.440 Y68.232 E0.03516
G1 X119.278 Y68.973 E0.03509
G1 X120.063 Y69.776 E0.03522
G1 X120.784 Y70.631 E0.03505
G1 X121.442 Y71.541 E0.03521
G1 X122.030 Y72.494 E0.03510
G1 X122.546 Y73.489 E0.03515
G1 X122.989 Y74.520 E0.03518
G1 X123.353 Y75.577 E0.03507
G1 X123.639 Y76.663 E0.03522
G1 X123.844 Y77.762 E0.03503
G1 X123.967 Y78.873 E0.03504
G1 X124.010 Y80.013 E0.03577
G1 X124.010 Y137.029 E1.78772
G1 X124.055 Y137.594 E0.01777
G1 X124.193 Y138.168 E0.01851
G1 X124.421 Y138.719 E0.01870
G1 X124.731 Y139.225 E0.01859
G1 X125.117 Y139.677 E0.01866
G1 X125.570 Y140.064 E0.01866
G1 X126.076 Y140.374 E0.01859
G1 X126.627 Y140.602 E0.01870
G1 X127.201 Y140.740 E0.01851
G1 X127.766 Y140.785 E0.01777
G1 X148.228 Y140.785 E0.64159
M73 P1 R113
M73 Q1 S114
G1 X148.793 Y140.740 E0.01777
G1 X149.367 Y140.602 E0.01851
G1 X149.918 Y140.374 E0.01870
G1 X150.424 Y140.064 E0.01859
G1 X150.877 Y139.677 E0.01866
G1 X151.263 Y139.225 E0.01866
G1 X151.573 Y138.719 E0.01859
G1 X151.801 Y138.168 E0.01870
G1 X151.939 Y137.594 E0.01851
G1 X151.984 Y137.029 E0.01777
G1 X151.984 Y74.026 E1.97541
G1 X152.019 Y73.539 E0.01532
G1 X152.116 Y73.094 E0.01428
G1 X152.277 Y72.664 E0.01440
G1 X152.496 Y72.262 E0.01435
G1 X152.770 Y71.896 E0.01434
G1 X153.095 Y71.571 E0.01440
G1 X153.461 Y71.297 E0.01434
G1 X153.863 Y71.077 E0.01435
G1 X154.293 Y70.917 E0.01440
G1 X154.738 Y70.820 E0.01428
G1 X155.225 Y70.785 E0.01532
G1 X156.410 Y70.785 E0.03714
G1 X156.410 Y136.978 E2.07545
M73 Q1 S113
G1 X156.369 Y137.807 E0.02601
G1 X156.251 Y138.600 E0.02514
G1 X156.055 Y139.382 E0.02527
G1 X155.784 Y140.140 E0.02527
G1 X155.439 Y140.869 E0.02527
G1 X155.025 Y141.560 E0.02527
G1 X154.545 Y142.207 E0.02527
G1 X154.004 Y142.805 E0.02527
G1 X153.406 Y143.346 E0.02527
G1 X152.759 Y143.826 E0.02527
G1 X152.068 Y144.240 E0.02527
G1 X151.340 Y144.585 E0.02527
G1 X150.581 Y144.856 E0.02527
G1 X149.799 Y145.052 E0.02527
G1 X149.006 Y145.170 E0.02514
G1 X148.178 Y145.211 E0.02601
G1 X127.817 Y145.211 E0.63840
G1 X126.988 Y145.170 E0.02601
G1 X126.195 Y145.052 E0.02514
G1 X125.413 Y144.856 E0.02527
G1 X124.654 Y144.585 E0.02527
G1 X123.926 Y144.240 E0.02527
G1 X123.235 Y143.826 E0.02527
G1 X122.588 Y143.346 E0.02527
G1 X121.990 Y142.805 E0.02527
G1 X121.449 Y142.207 E0.02527
G1 X120.969 Y141.560 E0.02527
G1 X120.555 Y140.869 E0.02527
G1 X120.210 Y140.140 E0.02527
G1 X119.939 Y139.382 E0.02527
G1 X119.743 Y138.600 E0.02527
G1 X119.625 Y137.807 E0.02514
G1 X119.584 Y136.978 E0.02601
G1 X119.584 Y79.979 E1.78716
G1 X119.538 Y79.001 E0.03072
G1 X119.402 Y78.021 E0.03102
G1 X119.175 Y77.055 E0.03111
G1 X118.861 Y76.111 E0.03119
G1 X118.461 Y75.204 E0.03109
G1 X117.978 Y74.334 E0.03121
G1 X117.419 Y73.515 E0.03108
G1 X116.785 Y72.748 E0.03121
G1 X116.086 Y72.045 E0.03107
G1 X115.322 Y71.407 E0.03122
G1 X114.506 Y70.844 E0.03108
G1 X113.638 Y70.357 E0.03121
G1 X112.732 Y69.953 E0.03109
G1 X111.790 Y69.634 E0.03120
G1 X110.825 Y69.402 E0.03110
G1 X109.841 Y69.261 E0.03118
G1 X108.850 Y69.210 E0.03113
G1 X107.857 Y69.251 E0.03115
G1 X106.872 Y69.383 E0.03116
G1 X105.904 Y69.605 E0.03112
G1 X104.960 Y69.916 E0.03118
G1 X104.050 Y70.311 E0.03110
G1 X103.177 Y70.789 E0.03120
G1 X102.356 Y71.344 E0.03108
G1 X101.586 Y71.975 E0.03121
G1 X100.880 Y72.670 E0.03108
G1 X100.238 Y73.432 E0.03122
G1 X99.671 Y74.245 E0.03107
G1 X99.180 Y75.110 E0.03121
G1 X98.772 Y76.014 E0.03108
G1 X98.448 Y76.955 E0.03120
G1 X98.212 Y77.918 E0.03109
G1 X98.065 Y78.902 E0.03119
G1 X98.010 Y79.892 E0.03111
G1 X98.046 Y80.881 E0.03102
G1 X98.171 Y81.853 E0.03072
G1 X106.550 Y129.372 E1.51292
G1 X106.624 Y130.025 E0.02061
G1 X106.620 Y130.650 E0.01959
G1 X106.539 Y131.275 E0.01977
G1 X106.385 Y131.884 E0.01968
G1 X106.157 Y132.473 E0.01979
G1 X105.862 Y133.026 E0.01967
G1 X105.500 Y133.543 E0.01980
G1 X105.081 Y134.010 E0.01967
G1 X104.606 Y134.426 E0.01979
G1 X104.087 Y134.778 E0.01968
G1 X103.526 Y135.068 E0.01977
G1 X102.937 Y135.287 E0.01970
G1 X102.325 Y135.433 E0.01974
G1 X101.700 Y135.505 E0.01974
G1 X101.071 Y135.501 E0.01970
G1 X100.446 Y135.420 E0.01977
G1 X99.837 Y135.266 E0.01968
G1 X99.249 Y135.038 E0.01979
G1 X98.695 Y134.743 E0.01967
G1 X98.178 Y134.381 E0.01980
G1 X97.711 Y133.962 E0.01967
G1 X97.296 Y133.487 E0.01979
G1 X96.943 Y132.968 E0.01968
G1 X96.653 Y132.407 E0.01977
G1 X96.435 Y131.818 E0.01970
G1 X96.288 Y131.206 E0.01974
G1 X96.216 Y130.581 E0.01974
G1 X96.220 Y129.952 E0.01970
G1 X96.301 Y129.327 E0.01977
G1 X96.455 Y128.718 E0.01968
G1 X96.683 Y128.130 E0.01979
G1 X96.978 Y127.576 E0.01967
G1 X97.340 Y127.059 E0.01980
G1 X97.759 Y126.592 E0.01967
G1 X98.234 Y126.177 E0.01979
G1 X98.754 Y125.824 E0.01968
G1 X99.314 Y125.534 E0.01977
G1 X99.899 Y125.317 E0.01959
G1 X101.224 Y124.999 E0.04269
G1 X100.849 Y124.701 F10800.000
;TYPE:External perimeter
G1 F1200.000
G1 X93.445 Y82.713 E1.33682
G1 X93.286 Y81.562 E0.03642
G1 X93.213 Y80.419 E0.03591
G1 X93.224 Y79.274 E0.03590
G1 X93.320 Y78.127 E0.03609
G1 X93.499 Y76.995 E0.03594
G1 X93.763 Y75.875 E0.03605
G1 X94.107 Y74.779 E0.03602
G1 X94.531 Y73.713 E0.03597
G1 X95.033 Y72.678 E0.03608
G1 X95.608 Y71.687 E0.03593
G1 X96.257 Y70.736 E0.03609
G1 X96.972 Y69.839 E0.03596
G1 X97.752 Y68.996 E0.03603
G1 X98.593 Y68.212 E0.03604
G1 X99.487 Y67.494 E0.03595
G1 X100.435 Y66.841 E0.03609
G1 X101.424 Y66.262 E0.03593
G1 X102.457 Y65.756 E0.03608
G1 X103.522 Y65.328 E0.03598
G1 X104.616 Y64.980 E0.03601
G1 X105.735 Y64.712 E0.03606
G1 X106.866 Y64.528 E0.03593
G1 X108.013 Y64.428 E0.03609
G1 X109.159 Y64.412 E0.03593
G1 X110.307 Y64.482 E0.03606
G1 X111.445 Y64.635 E0.03601
G1 X112.568 Y64.871 E0.03598
G1 X113.673 Y65.190 E0.03608
G1 X114.748 Y65.589 E0.03593
G1 X115.795 Y66.067 E0.03609
G1 X116.800 Y66.619 E0.03595
